contributed-vectors/mint_browser.svg

<svg width="192" height="192" version="1.1" viewBox="0 0 192 192" xmlns="http://www.w3.org/2000/svg">
 <path d="m96 8a88 88 0 0 0-88 88 88 88 0 0 0 88 88 88 88 0 0 0 88-88 88 88 0 0 0-88-88zm0 51.5a36.5 36.5 0 0 1 36.5 36.5 36.5 36.5 0 0 1-36.5 36.5 36.5 36.5 0 0 1-36.5-36.5 36.5 36.5 0 0 1 36.5-36.5z" style="fill:#96dfd3"/>
 <path d="m72 44c-28.785 0-52.41 20.422-60.742 28.623a88 88 0 0 0-3.2578 23.377 88 88 0 0 0 88 88 88 88 0 0 0 86.791-74.125c-5.2509 7.8699-27.469 38.125-58.791 38.125-28 0-56-28-56-28l0.32031-0.27344a36.5 36.5 0 0 1-8.8203-23.727 36.5 36.5 0 0 1 36.5-36.5 36.5 36.5 0 0 1 27.68 12.773l0.32031-0.27344s-20-28-52-28z" style="fill:#73ada4"/>
 <path d="m92 60s-56 0-60 60c-1.2444 18.666 5.1972 35.11 11.719 46.66a88 88 0 0 0 52.281 17.34 88 88 0 0 0 24.832-3.6367c-16.853-6.6566-47.941-23.84-58.51-62.475-14.741-53.889 29.678-57.889 29.678-57.889z" style="opacity:.25"/>
 <path d="m96 8a88 88 0 0 0-24.832 3.6367c16.853 6.6566 47.941 23.84 58.51 62.475 14.741 53.889-29.678 57.889-29.678 57.889s56 0 60-60c1.2444-18.666-5.1972-35.11-11.719-46.66a88 88 0 0 0-52.281-17.34z" style="fill:#fff;opacity:.5"/>
</svg>

<svg xmlns="http://www.w3.org/2000/svg" width="192" height="192"><path d="M96 8A88 88 0 0 0 8 96a88 88 0 0 0 88 88 88 88 0 0 0 88-88A88 88 0 0 0 96 8zm0 51.5A36.5 36.5 0 0 1 132.5 96 36.5 36.5 0 0 1 96 132.5 36.5 36.5 0 0 1 59.5 96 36.5 36.5 0 0 1 96 59.5z" style="fill:#96dfd3"/><path d="M72 44c-28.785 0-52.41 20.422-60.742 28.623A88 88 0 0 0 8 96a88 88 0 0 0 88 88 88 88 0 0 0 86.791-74.125c-5.25 7.87-27.469 38.125-58.79 38.125-28 0-56-28-56-28l.32-.273A36.5 36.5 0 0 1 59.5 96 36.5 36.5 0 0 1 96 59.5a36.5 36.5 0 0 1 27.68 12.773l.32-.274s-20-28-52-28z" style="fill:#73ada4"/><path d="M92 60s-56 0-60 60c-1.244 18.666 5.197 35.11 11.719 46.66A88 88 0 0 0 96 184a88 88 0 0 0 24.832-3.637c-16.853-6.656-47.941-23.84-58.51-62.475C47.581 64 92 60 92 60z" style="opacity:.25"/><path d="M96 8a88 88 0 0 0-24.832 3.637c16.853 6.656 47.941 23.84 58.51 62.475C144.419 128 100 132 100 132s56 0 60-60c1.244-18.666-5.197-35.11-11.719-46.66A88 88 0 0 0 96 8z" style="fill:#fff;opacity:.5"/></svg>
